;FLAVOR:Marlin
;TIME:8444
;Filament used: 5.47628m
;Layer height: 0.1
;MINX:-83.41
;MINY:-53.774
;MINZ:0.1
;MAXX:67.99
;MAXY:90.626
;MAXZ:1.5
;Generated with Cura_SteamEngine 4.9.1
M140 S65
M105
M190 S65
M104 S200
M105
M109 S200
M82 ;absolute extrusion mode
;MACHINE START CODE
G21 ;metric values
G90 ;absolute positioning
G28 ;home
G1 Z5 F9000
;MACHINE START CODE
G92 E0
G92 E0
G1 F4200 E-7
;LAYER_COUNT:15
;LAYER:0
M107
G1 F600 Z0.6
G0 F1440 X38.138 Y-34.174 Z0.6
;TYPE:SKIRT
G1 F600 Z0.1
G1 F4200 E0
G1 F1200 X40.055 Y-32.233 E0.04537
G1 X42.079 Y-30.294 E0.09198
G1 X44.122 Y-28.445 E0.1378
G1 X46.204 Y-26.665 E0.18336
G1 X48.374 Y-24.914 E0.22973
G1 X50.578 Y-23.238 E0.27577
G1 X52.809 Y-21.636 E0.32145
G1 X55.128 Y-20.068 E0.368
G1 X57.436 Y-18.603 E0.41346
G1 X59.812 Y-17.187 E0.45946
G1 X62.257 Y-15.821 E0.50604
G1 X64.681 Y-14.556 E0.55151
G1 X66.302 Y-13.768 E0.58148
G1 X66.772 Y-13.531 E0.59024
G1 X67.126 Y-13.308 E0.59719
G1 X67.432 Y-13.021 E0.60417
G1 X67.678 Y-12.682 E0.61114
G1 X67.855 Y-12.302 E0.61811
G1 X67.956 Y-11.896 E0.62507
G1 X67.989 Y-11.305 E0.63491
G1 X67.99 Y87.717 E2.28165
G1 X67.981 Y88.444 E2.29374
G1 X67.936 Y88.861 E2.30072
G1 X67.813 Y89.261 E2.30768
G1 X67.616 Y89.631 E2.31465
G1 X67.352 Y89.957 E2.32162
G1 X67.032 Y90.227 E2.32859
G1 X66.666 Y90.431 E2.33556
G1 X66.268 Y90.562 E2.34252
G1 X65.522 Y90.625 E2.35497
G1 X-80.531 Y90.626 E4.78384
G1 X-81.229 Y90.617 E4.79545
G1 X-81.646 Y90.572 E4.80243
G1 X-82.046 Y90.448 E4.80939
G1 X-82.416 Y90.251 E4.81636
G1 X-82.742 Y89.987 E4.82334
G1 X-83.012 Y89.667 E4.8303
G1 X-83.216 Y89.301 E4.83727
G1 X-83.347 Y88.903 E4.84424
G1 X-83.409 Y88.143 E4.85692
G1 X-83.41 Y-10.933 E6.50456
G1 X-83.4 Y-11.6 E6.51565
G1 X-83.354 Y-12.016 E6.52261
G1 X-83.229 Y-12.417 E6.5296
G1 X-83.031 Y-12.786 E6.53656
G1 X-82.767 Y-13.111 E6.54353
G1 X-82.446 Y-13.38 E6.55049
G1 X-82.166 Y-13.544 E6.55589
G1 X-81.253 Y-13.99 E6.57279
G1 X-78.776 Y-15.241 E6.61893
G1 X-76.344 Y-16.558 E6.66493
G1 X-73.947 Y-17.945 E6.71098
G1 X-71.604 Y-19.39 E6.75676
G1 X-69.294 Y-20.907 E6.80272
G1 X-67.019 Y-22.494 E6.84885
G1 X-64.8 Y-24.137 E6.89477
G1 X-62.618 Y-25.851 E6.94091
G1 X-60.499 Y-27.615 E6.98676
G1 X-58.436 Y-29.433 E7.03249
G1 X-56.376 Y-31.355 E7.07934
G1 X-54.433 Y-33.273 E7.12475
G1 X-52.519 Y-35.272 E7.17077
G1 X-50.672 Y-37.313 E7.21655
G1 X-48.864 Y-39.43 E7.26284
G1 X-47.107 Y-41.607 E7.30937
G1 X-45.468 Y-43.764 E7.35442
G1 X-43.85 Y-46.02 E7.40059
G1 X-42.277 Y-48.35 E7.44734
G1 X-40.827 Y-50.634 E7.49233
G1 X-39.762 Y-52.419 E7.5269
G1 X-39.322 Y-53.054 E7.53975
G1 X-39.01 Y-53.334 E7.54672
G1 X-38.651 Y-53.55 E7.55368
G1 X-38.257 Y-53.693 E7.56066
G1 X-37.448 Y-53.773 E7.57417
G1 X21.614 Y-53.774 E8.55638
G1 X22.315 Y-53.764 E8.56804
G1 X22.732 Y-53.718 E8.57502
G1 X23.132 Y-53.594 E8.58198
G1 X23.502 Y-53.396 E8.58896
G1 X23.827 Y-53.132 E8.59592
G1 X24.173 Y-52.691 E8.60524
G1 X24.718 Y-51.777 E8.62294
G1 X26.18 Y-49.407 E8.66925
G1 X27.706 Y-47.079 E8.71554
G1 X29.287 Y-44.813 E8.76149
G1 X30.927 Y-42.599 E8.80731
G1 X32.647 Y-40.406 E8.85366
G1 X34.405 Y-38.294 E8.89936
G1 X36.226 Y-36.225 E8.94519
G1 X38.138 Y-34.174 E8.99182
G0 F1440 X37.826 Y-33.92
G1 F1200 X39.795 Y-31.928 E9.0384
G1 X41.772 Y-30.033 E9.08394
G1 X43.87 Y-28.134 E9.131
G1 X45.952 Y-26.354 E9.17656
G1 X48.103 Y-24.618 E9.22253
G1 X50.348 Y-22.91 E9.26944
G1 X52.598 Y-21.295 E9.3155
G1 X54.87 Y-19.759 E9.3611
G1 X57.258 Y-18.243 E9.40814
G1 X59.618 Y-16.837 E9.45383
G1 X62.025 Y-15.492 E9.49968
G1 X64.527 Y-14.185 E9.54662
G1 X66.121 Y-13.411 E9.57609
G1 X66.591 Y-13.174 E9.58485
G1 X66.91 Y-12.969 E9.59115
G1 X67.178 Y-12.702 E9.59744
G1 X67.385 Y-12.384 E9.60375
G1 X67.52 Y-12.03 E9.61005
G1 X67.589 Y-11.294 E9.62235
G1 X67.59 Y87.712 E11.26882
G1 X67.581 Y88.439 E11.28091
G1 X67.536 Y88.816 E11.28723
G1 X67.414 Y89.174 E11.29352
G1 X67.219 Y89.499 E11.29982
G1 X66.961 Y89.776 E11.30612
G1 X66.65 Y89.993 E11.31242
G1 X66.301 Y90.14 E11.31872
G1 X65.831 Y90.216 E11.32664
G1 X65.46 Y90.226 E11.33281
G1 X-80.526 Y90.226 E13.76057
G1 X-81.224 Y90.217 E13.77218
G1 X-81.601 Y90.172 E13.77849
G1 X-81.959 Y90.05 E13.78478
G1 X-82.284 Y89.855 E13.79108
G1 X-82.561 Y89.596 E13.79739
G1 X-82.778 Y89.285 E13.8037
G1 X-82.925 Y88.936 E13.80999
G1 X-83 Y88.466 E13.81791
G1 X-83.01 Y88.084 E13.82426
G1 X-83.01 Y-10.927 E15.47082
G1 X-83 Y-11.594 E15.48192
G1 X-82.954 Y-11.97 E15.48822
G1 X-82.831 Y-12.329 E15.49453
G1 X-82.635 Y-12.653 E15.50082
G1 X-82.376 Y-12.93 E15.50713
G1 X-81.99 Y-13.184 E15.51482
G1 X-81.099 Y-13.62 E15.53131
G1 X-78.585 Y-14.89 E15.57815
G1 X-76.144 Y-16.211 E15.62431
G1 X-73.758 Y-17.592 E15.67015
G1 X-71.396 Y-19.049 E15.71631
G1 X-69.044 Y-20.593 E15.7631
G1 X-66.798 Y-22.161 E15.80865
G1 X-64.561 Y-23.817 E15.85493
G1 X-62.361 Y-25.545 E15.90146
G1 X-60.216 Y-27.33 E15.94786
G1 X-58.162 Y-29.141 E15.9934
G1 X-56.113 Y-31.053 E16.04001
G1 X-54.163 Y-32.977 E16.08557
G1 X-52.234 Y-34.992 E16.13196
G1 X-50.355 Y-37.068 E16.17852
G1 X-48.565 Y-39.165 E16.22437
G1 X-46.796 Y-41.356 E16.2712
G1 X-45.14 Y-43.534 E16.3167
G1 X-43.509 Y-45.809 E16.36325
G1 X-41.968 Y-48.093 E16.40907
G1 X-40.457 Y-50.472 E16.45594
G1 X-39.421 Y-52.209 E16.48958
G1 X-39.003 Y-52.81 E16.50175
G1 X-38.714 Y-53.054 E16.50804
G1 X-38.379 Y-53.233 E16.51436
G1 X-38.015 Y-53.337 E16.52065
G1 X-37.436 Y-53.373 E16.5303
G1 X21.609 Y-53.374 E17.51222
G1 X22.31 Y-53.364 E17.52388
G1 X22.686 Y-53.319 E17.53018
G1 X23.044 Y-53.196 E17.53647
G1 X23.369 Y-53 E17.54279
G1 X23.646 Y-52.741 E17.54909
G1 X23.83 Y-52.486 E17.55432
G1 X24.378 Y-51.567 E17.57212
G1 X25.855 Y-49.174 E17.61888
G1 X27.37 Y-46.861 E17.66486
G1 X28.947 Y-44.601 E17.71069
G1 X30.624 Y-42.337 E17.75755
G1 X32.324 Y-40.17 E17.80335
G1 X34.114 Y-38.018 E17.8499
G1 X35.934 Y-35.951 E17.8957
G1 X37.826 Y-33.92 E17.94186
G0 F1440 X37.531 Y-33.65
G1 F1200 X39.516 Y-31.64 E17.98884
G1 X41.518 Y-29.723 E18.03494
G1 X43.572 Y-27.863 E18.08102
G1 X45.711 Y-26.035 E18.12781
G1 X47.883 Y-24.282 E18.17423
G1 X50.112 Y-22.586 E18.22081
G1 X52.346 Y-20.983 E18.26653
G1 X54.679 Y-19.406 E18.31336
G1 X57.01 Y-17.926 E18.35928
G1 X59.44 Y-16.478 E18.40632
G1 X61.855 Y-15.129 E18.45232
G1 X64.333 Y-13.835 E18.49881
G1 X65.941 Y-13.054 E18.52854
G1 X66.411 Y-12.817 E18.5373
G1 X66.69 Y-12.632 E18.54286
G1 X66.916 Y-12.387 E18.54841
G1 X67.078 Y-12.094 E18.55397
G1 X67.18 Y-11.606 E18.56226
G1 X67.19 Y-11.244 E18.56829
G1 X67.19 Y87.707 E20.21385
G1 X67.181 Y88.434 E20.22594
G1 X67.137 Y88.765 E20.23149
G1 X67.016 Y89.077 E20.23706
G1 X66.824 Y89.351 E20.24262
G1 X66.573 Y89.571 E20.24817
G1 X66.277 Y89.726 E20.25373
G1 X65.82 Y89.816 E20.26147
G1 X65.46 Y89.826 E20.26746
G1 X-80.521 Y89.826 E22.69514
G1 X-81.219 Y89.817 E22.70675
G1 X-81.55 Y89.773 E22.7123
G1 X-81.861 Y89.651 E22.71786
G1 X-82.135 Y89.46 E22.72341
G1 X-82.356 Y89.209 E22.72897
G1 X-82.51 Y88.913 E22.73452
G1 X-82.6 Y88.455 E22.74228
G1 X-82.61 Y88.084 E22.74845
G1 X-82.61 Y-10.921 E24.39491
G1 X-82.6 Y-11.588 E24.40601
G1 X-82.555 Y-11.919 E24.41156
G1 X-82.433 Y-12.23 E24.41712
G1 X-82.241 Y-12.503 E24.42267
G1 X-81.814 Y-12.825 E24.43156
G1 X-80.918 Y-13.263 E24.44815
G1 X-78.408 Y-14.531 E24.49491
G1 X-75.96 Y-15.856 E24.54121
G1 X-73.528 Y-17.263 E24.58793
G1 X-71.172 Y-18.717 E24.63397
G1 X-68.849 Y-20.242 E24.68018
G1 X-66.553 Y-21.844 E24.72674
G1 X-64.321 Y-23.496 E24.77292
G1 X-62.104 Y-25.238 E24.81981
G1 X-59.987 Y-27 E24.86561
G1 X-57.891 Y-28.848 E24.91208
G1 X-55.842 Y-30.759 E24.95868
G1 X-53.854 Y-32.72 E25.00512
G1 X-51.926 Y-34.735 E25.0515
G1 X-50.071 Y-36.786 E25.09749
G1 X-48.237 Y-38.933 E25.14444
G1 X-46.51 Y-41.072 E25.19016
G1 X-44.813 Y-43.305 E25.2368
G1 X-43.173 Y-45.591 E25.28359
G1 X-41.631 Y-47.876 E25.32943
G1 X-40.119 Y-50.257 E25.37634
G1 X-39.081 Y-51.999 E25.41006
G1 X-38.687 Y-52.561 E25.42148
G1 X-38.422 Y-52.766 E25.42705
G1 X-38.117 Y-52.902 E25.4326
G1 X-37.423 Y-52.973 E25.4442
G1 X21.603 Y-52.974 E26.42581
G1 X22.304 Y-52.964 E26.43747
G1 X22.635 Y-52.919 E26.44302
G1 X22.946 Y-52.798 E26.44857
G1 X23.22 Y-52.606 E26.45414
G1 X23.486 Y-52.281 E26.46112
G1 X24.037 Y-51.357 E26.47901
G1 X25.502 Y-48.982 E26.52542
G1 X27.041 Y-46.634 E26.57211
G1 X28.637 Y-44.347 E26.61848
G1 X30.303 Y-42.097 E26.66504
G1 X32.017 Y-39.913 E26.71121
G1 X33.789 Y-37.783 E26.75729
G1 X35.658 Y-35.66 E26.80433
G1 X37.531 Y-33.65 E26.85002
G1 F4200 E19.85002
G1 F600 Z0.6
;MESH:canasta gate.STL
G0 F1440 X37.676 Y-2.704 Z0.6
;TYPE:WALL-INNER
G1 F600 Z0.1
G1 F4200 E26.85002
G1 F1200 X31.494 Y-9.071 E26.9976
G1 X31.354 Y-9.215 E27.00094
G1 X31.212 Y-9.073 E27.00308
G1 X24.927 Y-2.787 E27.15091
G1 X31.343 Y3.629 E27.3018
G1 X37.676 Y-2.704 E27.45075
G0 F1440 X30.689 Y4.284
G1 F1200 X24.506 Y-2.083 E27.59834
G1 X24.366 Y-2.227 E27.60168
G1 X24.224 Y-2.085 E27.60383
G1 X17.996 Y4.143 E27.7503
G1 X17.855 Y4.284 E27.75362
G1 X17.996 Y4.425 E27.75576
G1 X24.272 Y10.7 E27.90335
G1 X30.689 Y4.284 E28.05425
G0 F1440 X25.17 Y11.355
G0 X31.426 Y17.854
G1 F1200 X37.843 Y11.438 E28.20516
G1 X31.578 Y4.987 E28.35471
G1 X31.438 Y4.843 E28.35805
G1 X31.296 Y4.985 E28.36019
G1 X24.927 Y11.355 E28.50999
G1 X31.426 Y17.854 E28.66284
G0 F1440 X24.439 Y24.842
G1 F1200 X30.861 Y18.42 E28.81387
G1 X24.361 Y11.92 E28.96674
G1 X17.939 Y18.342 E29.11778
G1 X24.439 Y24.842 E29.27065
G0 F1440 X31.343 Y31.913
G1 F1200 X37.676 Y25.58 E29.41959
G1 X31.494 Y19.214 E29.56716
G1 X31.354 Y19.07 E29.5705
G1 X31.212 Y19.212 E29.57265
G1 X24.927 Y25.497 E29.72046
G1 X31.343 Y31.913 E29.87136
G0 F1440 X24.272 Y38.984
G1 F1200 X30.689 Y32.568 E30.02226
G1 X24.506 Y26.201 E30.16986
G1 X24.366 Y26.057 E30.1732
G1 X24.224 Y26.199 E30.17534
G1 X17.996 Y32.427 E30.32182
G1 X17.855 Y32.568 E30.32513
G1 X17.996 Y32.709 E30.32727
G1 X24.272 Y38.984 E30.47486
G0 F1440 X17.285 Y46.138
G1 F1200 X23.701 Y39.722 E30.62576
G1 X17.436 Y33.271 E30.77531
G1 X17.296 Y33.127 E30.77864
G1 X17.154 Y33.269 E30.78079
G1 X10.925 Y39.498 E30.92729
G1 X10.784 Y39.639 E30.9306
G1 X10.925 Y39.78 E30.93274
G1 X17.285 Y46.138 E31.0823
G0 F1440 X10.296 Y53.127
G1 F1200 X10.437 Y52.986 E31.08561
G1 X16.719 Y46.704 E31.23336
G1 X10.36 Y40.345 E31.38291
G1 X10.219 Y40.204 E31.38623
G1 X10.078 Y40.345 E31.38837
G1 X3.797 Y46.627 E31.5361
G1 X10.155 Y52.986 E31.68564
G1 X10.296 Y53.127 E31.68778
G0 F1440 X17.204 Y60.201
G1 F1200 X23.621 Y53.784 E31.8387
G1 X17.429 Y47.408 E31.98651
G1 X17.289 Y47.264 E31.98985
G1 X17.147 Y47.406 E31.99199
G1 X11.28 Y53.274 E32.12999
G1 X10.793 Y53.79 E32.14179
G1 X17.204 Y60.201 E32.29256
G0 F1440 X10.216 Y67.188
G1 F1200 X16.633 Y60.772 E32.44347
G1 X10.441 Y54.396 E32.59128
G1 X10.301 Y54.252 E32.59462
G1 X10.159 Y54.394 E32.59676
G1 X4.294 Y60.26 E32.73471
G1 X3.798 Y60.77 E32.74654
G1 X10.216 Y67.188 E32.89748
G0 F1440 X3.062 Y60.201
G1 F1200 X3.203 Y60.06 E32.9008
G1 X9.478 Y53.784 E33.04839
G1 X3.288 Y47.409 E33.19616
G1 X3.147 Y47.264 E33.19952
G1 X3.004 Y47.407 E33.20169
G1 X-3.357 Y53.781 E33.35144
G1 X2.921 Y60.06 E33.4991
G1 X3.062 Y60.201 E33.50124
G0 F1440 X-3.926 Y67.188
G1 F1200 X2.491 Y60.772 E33.65215
G1 X-3.7 Y54.397 E33.79993
G1 X-3.841 Y54.252 E33.80329
G1 X-3.984 Y54.395 E33.80546
G1 X-10.345 Y60.769 E33.95521
G1 X-3.926 Y67.188 E34.10618
G0 F1440 X-11.08 Y60.201
G1 F1200 X-10.939 Y60.06 E34.10949
G1 X-4.664 Y53.784 E34.25708
G1 X-10.854 Y47.409 E34.40486
G1 X-10.995 Y47.264 E34.40822
G1 X-11.138 Y47.407 E34.41038
G1 X-17.103 Y53.384 E34.55081
G1 X-17.443 Y53.838 E34.56024
G1 X-11.221 Y60.06 E34.70658
G1 X-11.08 Y60.201 E34.70872
G0 F1440 X-18.068 Y67.188
G1 F1200 X-11.652 Y60.772 E34.85961
G1 X-17.843 Y54.396 E35.00741
G1 X-17.983 Y54.252 E35.01075
G1 X-18.125 Y54.394 E35.01289
G1 X-23.999 Y60.269 E35.15105
G1 X-24.461 Y60.796 E35.16271
G1 X-18.068 Y67.188 E35.31305
G0 F1440 X-24.976 Y74.257
G1 F1200 X-18.559 Y67.84 E35.46397
G1 X-24.833 Y61.38 E35.61372
G1 X-24.973 Y61.236 E35.61706
G1 X-25.115 Y61.378 E35.61921
G1 X-31.485 Y67.748 E35.76902
G1 X-24.976 Y74.257 E35.9221
G0 F1440 X-31.963 Y81.244
G1 F1200 X-25.547 Y74.828 E36.073
G1 X-31.82 Y68.368 E36.22275
G1 X-31.96 Y68.224 E36.22609
G1 X-32.102 Y68.366 E36.22823
G1 X-38.331 Y74.594 E36.37472
G1 X-38.472 Y74.735 E36.37803
G1 X-38.331 Y74.876 E36.38017
G1 X-31.963 Y81.244 E36.52994
G0 F1440 X-39.118 Y74.257
G1 F1200 X-32.701 Y67.84 E36.68086
G1 X-38.975 Y61.38 E36.83061
G1 X-39.115 Y61.236 E36.83395
G1 X-39.257 Y61.378 E36.8361
G1 X-45.627 Y67.748 E36.98591
G1 X-39.118 Y74.257 E37.13899
G0 F1440 X-46.106 Y81.244
G1 F1200 X-39.689 Y74.828 E37.2899
G1 X-45.963 Y68.368 E37.43966
G1 X-46.103 Y68.224 E37.443
G1 X-46.245 Y68.366 E37.44514
G1 X-52.614 Y74.735 E37.59493
G1 X-46.106 Y81.244 E37.748
G0 F1440 X-53.177 Y74.185
G1 F1200 X-53.036 Y74.044 E37.75132
G1 X-46.761 Y67.768 E37.89891
G1 X-53.034 Y61.309 E38.04864
G1 X-53.174 Y61.165 E38.05198
G1 X-53.316 Y61.307 E38.05413
G1 X-59.545 Y67.535 E38.20061
G1 X-59.686 Y67.676 E38.20393
G1 X-59.545 Y67.817 E38.20607
G1 X-53.318 Y74.044 E38.35252
G1 X-53.177 Y74.185 E38.35466
G0 F1440 X-60.164 Y81.173
G1 F1200 X-60.023 Y81.032 E38.35798
G1 X-53.748 Y74.756 E38.50557
G1 X-60.021 Y68.296 E38.65532
G1 X-60.161 Y68.152 E38.65866
G1 X-60.303 Y68.294 E38.6608
G1 X-66.673 Y74.664 E38.81061
G1 X-60.305 Y81.032 E38.96038
G1 X-60.164 Y81.173 E38.96252
G0 F1440 X-67.319 Y74.185
G1 F1200 X-67.178 Y74.044 E38.96584
G1 X-60.903 Y67.768 E39.11343
G1 X-67.176 Y61.309 E39.26316
G1 X-67.316 Y61.165 E39.2665
G1 X-67.458 Y61.307 E39.26865
G1 X-73.687 Y67.535 E39.41513
G1 X-73.828 Y67.676 E39.41845
G1 X-73.687 Y67.817 E39.42059
G1 X-67.46 Y74.044 E39.56704
G1 X-67.319 Y74.185 E39.56918
G0 F1440 X-60.331 Y67.031
G1 F1200 X-53.914 Y60.614 E39.7201
G1 X-60.106 Y54.239 E39.86789
G1 X-60.246 Y54.095 E39.87123
G1 X-60.388 Y54.237 E39.87338
G1 X-66.308 Y60.157 E40.01261
G1 X-66.752 Y60.61 E40.02316
G1 X-60.331 Y67.031 E40.17417
G0 F1440 X-53.343 Y60.043
G1 F1200 X-46.927 Y53.627 E40.32506
G1 X-53.114 Y47.255 E40.47276
G1 X-53.254 Y47.111 E40.4761
G1 X-53.397 Y47.252 E40.47825
G1 X-53.873 Y47.721 E40.48937
G1 X-59.324 Y53.172 E40.61756
G1 X-59.757 Y53.63 E40.62805
G1 X-53.343 Y60.043 E40.77888
G0 F1440 X-60.251 Y52.969
G1 F1200 X-53.969 Y46.687 E40.92662
G1 X-53.828 Y46.546 E40.92994
G1 X-53.969 Y46.405 E40.93208
G1 X-60.328 Y40.047 E41.08162
G1 X-66.61 Y46.328 E41.22936
G1 X-66.751 Y46.469 E41.23267
G1 X-66.61 Y46.61 E41.23481
G1 X-60.251 Y52.969 E41.38437
G0 F1440 X-53.255 Y45.973
G1 F1200 X-46.847 Y39.564 E41.53509
G1 X-53.111 Y33.114 E41.68461
G1 X-53.251 Y32.97 E41.68795
G1 X-53.393 Y33.112 E41.69009
G1 X-59.622 Y39.34 E41.83658
G1 X-59.763 Y39.481 E41.83989
G1 X-59.622 Y39.622 E41.84204
G1 X-53.255 Y45.973 E41.99159
G0 F1440 X-46.358 Y38.898
G1 F1200 X-39.942 Y32.482 E42.14248
G1 X-45.733 Y26.52 E42.28071
G1 X-46.124 Y26.126 E42.28994
G1 X-46.265 Y25.985 E42.29325
G1 X-46.406 Y26.126 E42.29539
G1 X-52.628 Y32.347 E42.44171
G1 X-52.769 Y32.488 E42.44503
G1 X-52.628 Y32.629 E42.44717
G1 X-46.358 Y38.898 E42.59462
G0 F1440 X-53.426 Y31.836
G1 F1200 X-47.013 Y25.423 E42.74544
G1 X-53.196 Y19.056 E42.89304
G1 X-53.336 Y18.912 E42.89638
G1 X-53.478 Y19.054 E42.89852
G1 X-59.702 Y25.279 E43.04491
G1 X-59.843 Y25.42 E43.04823
G1 X-59.702 Y25.561 E43.05037
G1 X-53.426 Y31.836 E43.19796
G0 F1440 X-58.426 Y26.64
G0 X-60.251 Y24.685
G1 F1200 X-60.11 Y24.544 E43.20128
G1 X-54.049 Y18.483 E43.34382
G1 X-53.908 Y18.342 E43.34714
G1 X-54.049 Y18.201 E43.34928
G1 X-60.328 Y11.923 E43.49694
G1 X-66.67 Y18.265 E43.6461
G1 X-60.392 Y24.544 E43.79376
G1 X-60.251 Y24.685 E43.7959
