;FLAVOR:Marlin
;TIME:8652
;Filament used: 33.824m
;Layer height: 0.4
;MINX:-76.8
;MINY:-5.55
;MINZ:0.4
;MAXX:76.8
;MAXY:5.55
;MAXZ:100
;Generated with Cura_SteamEngine 4.9.1
M140 S65
M105
M190 S65
M104 S200
M105
M109 S200
M82 ;absolute extrusion mode
;MACHINE START CODE
G21 ;metric values
G90 ;absolute positioning
G28 ;home
G1 Z5 F9000
;MACHINE START CODE
G92 E0
G92 E0
G1 F4200 E-7
;LAYER_COUNT:250
;LAYER:0
M107
G1 F600 Z0.9
G0 F1440 X-74.316 Y5.55 Z0.9
;TYPE:SKIRT
G1 F600 Z0.4
G1 F4200 E0
G1 F1200 X-75.014 Y5.541 E0.04644
G1 X-75.391 Y5.496 E0.07169
G1 X-75.749 Y5.374 E0.09685
G1 X-76.074 Y5.179 E0.12206
G1 X-76.351 Y4.92 E0.14729
G1 X-76.568 Y4.609 E0.17251
G1 X-76.715 Y4.26 E0.19771
G1 X-76.79 Y3.79 E0.22937
G1 X-76.8 Y3.408 E0.25478
G1 X-76.8 Y-3.1 E0.6877
G1 X-76.791 Y-3.765 E0.73194
G1 X-76.746 Y-4.142 E0.75719
G1 X-76.623 Y-4.5 E0.78238
G1 X-76.428 Y-4.825 E0.80759
G1 X-76.169 Y-5.102 E0.83281
G1 X-75.858 Y-5.318 E0.858
G1 X-75.509 Y-5.465 E0.88319
G1 X-75.041 Y-5.54 E0.91472
G1 X-74.67 Y-5.55 E0.93941
G1 X74.319 Y-5.55 E10.8502
G1 X75.017 Y-5.54 E10.89663
G1 X75.393 Y-5.495 E10.92182
G1 X75.751 Y-5.371 E10.94703
G1 X76.076 Y-5.176 E10.97224
G1 X76.353 Y-4.917 E10.99746
G1 X76.569 Y-4.606 E11.02265
G1 X76.715 Y-4.256 E11.04788
G1 X76.79 Y-3.791 E11.07921
G1 X76.8 Y-3.42 E11.1039
G1 X76.8 Y3.036 E11.53335
G1 X76.791 Y3.763 E11.58172
G1 X76.746 Y4.14 E11.60697
G1 X76.624 Y4.498 E11.63213
G1 X76.429 Y4.823 E11.65734
G1 X76.171 Y5.1 E11.68252
G1 X75.86 Y5.317 E11.70775
G1 X75.511 Y5.464 E11.73294
G1 X75.041 Y5.54 E11.76461
G1 X74.67 Y5.55 E11.7893
G1 X-74.316 Y5.55 E21.69989
G0 F1440 X-74.311 Y5.15
G1 F1200 X-75.009 Y5.141 E21.74632
G1 X-75.34 Y5.097 E21.76854
G1 X-75.651 Y4.975 E21.79076
G1 X-75.925 Y4.784 E21.81298
G1 X-76.146 Y4.533 E21.83522
G1 X-76.3 Y4.237 E21.85742
G1 X-76.39 Y3.779 E21.88847
G1 X-76.4 Y3.408 E21.91316
G1 X-76.4 Y-3.095 E22.34574
G1 X-76.391 Y-3.76 E22.38998
G1 X-76.347 Y-4.091 E22.41219
G1 X-76.225 Y-4.402 E22.43441
G1 X-76.033 Y-4.676 E22.45667
G1 X-75.782 Y-4.896 E22.47887
G1 X-75.486 Y-5.051 E22.5011
G1 X-75.03 Y-5.14 E22.532
G1 X-74.67 Y-5.15 E22.55596
G1 X74.313 Y-5.15 E32.46635
G1 X75.011 Y-5.14 E32.51278
G1 X75.342 Y-5.095 E32.535
G1 X75.653 Y-4.973 E32.55723
G1 X75.927 Y-4.781 E32.57948
G1 X76.147 Y-4.53 E32.60168
G1 X76.301 Y-4.234 E32.62388
G1 X76.39 Y-3.779 E32.65472
G1 X76.4 Y-3.42 E32.67861
G1 X76.4 Y3.031 E33.10773
G1 X76.391 Y3.758 E33.1561
G1 X76.347 Y4.089 E33.17831
G1 X76.226 Y4.401 E33.20057
G1 X76.034 Y4.675 E33.22283
G1 X75.783 Y4.895 E33.24503
G1 X75.487 Y5.05 E33.26725
G1 X75.03 Y5.14 E33.29824
G1 X74.67 Y5.15 E33.32219
G1 X-74.311 Y5.15 E43.23245
G1 F4200 E36.23245
G1 F600 Z0.9
;MESH:frontal2.STL
G0 F1440 X-74.4 Y3.15 Z0.9
;TYPE:WALL-INNER
G1 F600 Z0.4
G1 F4200 E43.23245
G1 F1200 X-74.4 Y-3.15 E43.65153
G1 X74.4 Y-3.15 E53.54974
G1 X74.4 Y3.15 E53.96882
G1 X-74.4 Y3.15 E63.86704
G0 F1440 X-74.8 Y3.55
;TYPE:WALL-OUTER
G1 F1200 X-74.8 Y-3.55 E64.33933
G1 X74.8 Y-3.55 E74.29076
G1 X74.8 Y3.55 E74.76306
G1 X-74.8 Y3.55 E84.71449
G0 F1440 X-74.8 Y3.35
G0 X-74.01 Y2.76
;TYPE:SKIN
G1 F1200 X-74.01 Y-2.76 E85.08168
G1 X74.01 Y-2.76 E94.92801
G1 X74.01 Y2.76 E95.2952
G1 X-74.01 Y2.76 E105.14154
G0 F1440 X-73.829 Y1.972
G1 F1200 X-73.221 Y2.58 E105.19873
G0 F1440 X-72.655 Y2.58
G1 F1200 X-73.829 Y1.406 E105.30917
G0 F1440 X-73.829 Y0.84
G1 F1200 X-72.09 Y2.58 E105.47282
G0 F1440 X-71.524 Y2.58
G1 F1200 X-73.829 Y0.275 E105.68966
G0 F1440 X-73.829 Y-.29
G1 F1200 X-70.958 Y2.58 E105.9597
G0 F1440 X-70.393 Y2.58
G1 F1200 X-73.829 Y-.856 E106.28293
G0 F1440 X-73.829 Y-1.421
G1 F1200 X-69.827 Y2.58 E106.65937
G0 F1440 X-69.261 Y2.58
G1 F1200 X-73.829 Y-1.987 E107.08905
G0 F1440 X-73.829 Y-2.553
G1 F1200 X-68.696 Y2.58 E107.57193
G0 F1440 X-68.13 Y2.58
G1 F1200 X-73.29 Y-2.58 E108.05735
G0 F1440 X-72.725 Y-2.58
G1 F1200 X-67.564 Y2.58 E108.54282
G0 F1440 X-66.999 Y2.58
G1 F1200 X-72.159 Y-2.58 E109.02824
G0 F1440 X-71.593 Y-2.58
G1 F1200 X-66.433 Y2.58 E109.51367
G0 F1440 X-65.867 Y2.58
G1 F1200 X-71.028 Y-2.58 E109.99913
G0 F1440 X-70.462 Y-2.58
G1 F1200 X-65.302 Y2.58 E110.48455
G0 F1440 X-64.736 Y2.58
G1 F1200 X-69.896 Y-2.58 E110.96998
G0 F1440 X-69.331 Y-2.58
G1 F1200 X-64.17 Y2.58 E111.45544
G0 F1440 X-63.604 Y2.58
G1 F1200 X-68.765 Y-2.58 E111.94091
G0 F1440 X-68.199 Y-2.58
G1 F1200 X-63.039 Y2.58 E112.42633
G0 F1440 X-62.473 Y2.58
G1 F1200 X-67.634 Y-2.58 E112.9118
G0 F1440 X-67.068 Y-2.58
G1 F1200 X-61.907 Y2.58 E113.39727
G0 F1440 X-61.342 Y2.58
G1 F1200 X-66.502 Y-2.58 E113.88269
G0 F1440 X-65.937 Y-2.58
G1 F1200 X-60.776 Y2.58 E114.36816
G0 F1440 X-60.21 Y2.58
G1 F1200 X-65.371 Y-2.58 E114.85363
G0 F1440 X-64.805 Y-2.58
G1 F1200 X-59.645 Y2.58 E115.33905
G0 F1440 X-59.079 Y2.58
G1 F1200 X-64.239 Y-2.58 E115.82447
G0 F1440 X-63.674 Y-2.58
G1 F1200 X-58.513 Y2.58 E116.30994
G0 F1440 X-57.948 Y2.58
G1 F1200 X-63.108 Y-2.58 E116.79536
G0 F1440 X-62.542 Y-2.58
G1 F1200 X-57.382 Y2.58 E117.28078
G0 F1440 X-56.816 Y2.58
G1 F1200 X-61.977 Y-2.58 E117.76625
G0 F1440 X-61.411 Y-2.58
G1 F1200 X-56.251 Y2.58 E118.25167
G0 F1440 X-55.685 Y2.58
G1 F1200 X-60.845 Y-2.58 E118.73709
G0 F1440 X-60.28 Y-2.58
G1 F1200 X-55.119 Y2.58 E119.22256
G0 F1440 X-54.553 Y2.58
G1 F1200 X-59.714 Y-2.58 E119.70803
G0 F1440 X-59.148 Y-2.58
G1 F1200 X-53.988 Y2.58 E120.19345
G0 F1440 X-53.422 Y2.58
G1 F1200 X-58.583 Y-2.58 E120.67892
G0 F1440 X-58.017 Y-2.58
G1 F1200 X-52.856 Y2.58 E121.16438
G0 F1440 X-52.291 Y2.58
G1 F1200 X-57.451 Y-2.58 E121.64981
G0 F1440 X-56.886 Y-2.58
G1 F1200 X-51.725 Y2.58 E122.13527
G0 F1440 X-51.159 Y2.58
G1 F1200 X-56.32 Y-2.58 E122.62074
G0 F1440 X-55.754 Y-2.58
G1 F1200 X-50.594 Y2.58 E123.10616
G0 F1440 X-50.028 Y2.58
G1 F1200 X-55.188 Y-2.58 E123.59158
G0 F1440 X-54.623 Y-2.58
G1 F1200 X-49.462 Y2.58 E124.07705
G0 F1440 X-48.897 Y2.58
G1 F1200 X-54.057 Y-2.58 E124.56247
G0 F1440 X-53.491 Y-2.58
G1 F1200 X-48.331 Y2.58 E125.0479
G0 F1440 X-47.765 Y2.58
G1 F1200 X-52.926 Y-2.58 E125.53336
G0 F1440 X-52.36 Y-2.58
G1 F1200 X-47.2 Y2.58 E126.01878
G0 F1440 X-46.634 Y2.58
G1 F1200 X-51.794 Y-2.58 E126.50421
G0 F1440 X-51.229 Y-2.58
G1 F1200 X-46.068 Y2.58 E126.98967
G0 F1440 X-45.503 Y2.58
G1 F1200 X-50.663 Y-2.58 E127.47509
G0 F1440 X-50.097 Y-2.58
G1 F1200 X-44.937 Y2.58 E127.96052
G0 F1440 X-44.371 Y2.58
G1 F1200 X-49.532 Y-2.58 E128.44598
G0 F1440 X-48.966 Y-2.58
G1 F1200 X-43.805 Y2.58 E128.93145
G0 F1440 X-43.24 Y2.58
G1 F1200 X-48.4 Y-2.58 E129.41687
G0 F1440 X-47.835 Y-2.58
G1 F1200 X-42.674 Y2.58 E129.90234
G0 F1440 X-42.108 Y2.58
G1 F1200 X-47.269 Y-2.58 E130.38781
G0 F1440 X-46.703 Y-2.58
G1 F1200 X-41.543 Y2.58 E130.87323
G0 F1440 X-40.977 Y2.58
G1 F1200 X-46.138 Y-2.58 E131.3587
G0 F1440 X-45.572 Y-2.58
G1 F1200 X-40.411 Y2.58 E131.84417
G0 F1440 X-39.846 Y2.58
G1 F1200 X-45.006 Y-2.58 E132.32959
G0 F1440 X-44.44 Y-2.58
G1 F1200 X-39.28 Y2.58 E132.81501
G0 F1440 X-38.714 Y2.58
G1 F1200 X-43.875 Y-2.58 E133.30048
G0 F1440 X-43.309 Y-2.58
G1 F1200 X-38.149 Y2.58 E133.7859
G0 F1440 X-37.583 Y2.58
G1 F1200 X-42.743 Y-2.58 E134.27132
G0 F1440 X-42.178 Y-2.58
G1 F1200 X-37.017 Y2.58 E134.75679
G0 F1440 X-36.452 Y2.58
G1 F1200 X-41.612 Y-2.58 E135.24221
G0 F1440 X-41.046 Y-2.58
G1 F1200 X-35.886 Y2.58 E135.72763
G0 F1440 X-35.32 Y2.58
G1 F1200 X-40.481 Y-2.58 E136.2131
G0 F1440 X-39.915 Y-2.58
G1 F1200 X-34.755 Y2.58 E136.69852
G0 F1440 X-34.189 Y2.58
G1 F1200 X-39.349 Y-2.58 E137.18394
G0 F1440 X-38.784 Y-2.58
G1 F1200 X-33.623 Y2.58 E137.66941
G0 F1440 X-33.057 Y2.58
G1 F1200 X-38.218 Y-2.58 E138.15488
G0 F1440 X-37.652 Y-2.58
G1 F1200 X-32.492 Y2.58 E138.6403
G0 F1440 X-31.926 Y2.58
G1 F1200 X-37.087 Y-2.58 E139.12577
G0 F1440 X-36.521 Y-2.58
G1 F1200 X-31.36 Y2.58 E139.61124
G0 F1440 X-30.795 Y2.58
G1 F1200 X-35.955 Y-2.58 E140.09666
G0 F1440 X-35.389 Y-2.58
G1 F1200 X-30.229 Y2.58 E140.58208
G0 F1440 X-29.663 Y2.58
G1 F1200 X-34.824 Y-2.58 E141.06755
G0 F1440 X-34.258 Y-2.58
G1 F1200 X-29.098 Y2.58 E141.55297
G0 F1440 X-28.532 Y2.58
G1 F1200 X-33.692 Y-2.58 E142.03839
G0 F1440 X-33.127 Y-2.58
G1 F1200 X-27.966 Y2.58 E142.52386
G0 F1440 X-27.401 Y2.58
G1 F1200 X-32.561 Y-2.58 E143.00928
G0 F1440 X-31.995 Y-2.58
G1 F1200 X-26.835 Y2.58 E143.4947
G0 F1440 X-26.269 Y2.58
G1 F1200 X-31.43 Y-2.58 E143.98017
G0 F1440 X-30.864 Y-2.58
G1 F1200 X-25.704 Y2.58 E144.46559
G0 F1440 X-25.138 Y2.58
G1 F1200 X-30.298 Y-2.58 E144.95101
G0 F1440 X-29.733 Y-2.58
G1 F1200 X-24.572 Y2.58 E145.43648
G0 F1440 X-24.006 Y2.58
G1 F1200 X-29.167 Y-2.58 E145.92195
G0 F1440 X-28.601 Y-2.58
G1 F1200 X-23.441 Y2.58 E146.40737
G0 F1440 X-22.875 Y2.58
G1 F1200 X-28.036 Y-2.58 E146.89284
G0 F1440 X-27.47 Y-2.58
G1 F1200 X-22.309 Y2.58 E147.3783
G0 F1440 X-21.744 Y2.58
G1 F1200 X-26.904 Y-2.58 E147.86372
G0 F1440 X-26.339 Y-2.58
G1 F1200 X-21.178 Y2.58 E148.34919
G0 F1440 X-20.612 Y2.58
G1 F1200 X-25.773 Y-2.58 E148.83466
G0 F1440 X-25.207 Y-2.58
G1 F1200 X-20.047 Y2.58 E149.32008
G0 F1440 X-19.481 Y2.58
G1 F1200 X-24.641 Y-2.58 E149.8055
G0 F1440 X-24.076 Y-2.58
G1 F1200 X-18.915 Y2.58 E150.29097
G0 F1440 X-18.35 Y2.58
G1 F1200 X-23.51 Y-2.58 E150.77639
G0 F1440 X-22.944 Y-2.58
G1 F1200 X-17.784 Y2.58 E151.26181
G0 F1440 X-17.218 Y2.58
G1 F1200 X-22.379 Y-2.58 E151.74728
G0 F1440 X-21.813 Y-2.58
G1 F1200 X-16.653 Y2.58 E152.2327
G0 F1440 X-16.087 Y2.58
G1 F1200 X-21.247 Y-2.58 E152.71812
G0 F1440 X-20.682 Y-2.58
G1 F1200 X-15.521 Y2.58 E153.20359
G0 F1440 X-14.956 Y2.58
G1 F1200 X-20.116 Y-2.58 E153.68901
G0 F1440 X-19.55 Y-2.58
G1 F1200 X-14.39 Y2.58 E154.17443
G0 F1440 X-13.824 Y2.58
G1 F1200 X-18.985 Y-2.58 E154.6599
G0 F1440 X-18.419 Y-2.58
G1 F1200 X-13.258 Y2.58 E155.14537
G0 F1440 X-12.693 Y2.58
G1 F1200 X-17.853 Y-2.58 E155.63079
G0 F1440 X-17.288 Y-2.58
G1 F1200 X-12.127 Y2.58 E156.11626
G0 F1440 X-11.561 Y2.58
G1 F1200 X-16.722 Y-2.58 E156.60173
G0 F1440 X-16.156 Y-2.58
G1 F1200 X-10.996 Y2.58 E157.08715
G0 F1440 X-10.43 Y2.58
G1 F1200 X-15.59 Y-2.58 E157.57257
G0 F1440 X-15.025 Y-2.58
G1 F1200 X-9.864 Y2.58 E158.05804
G0 F1440 X-9.299 Y2.58
G1 F1200 X-14.459 Y-2.58 E158.54346
G0 F1440 X-13.893 Y-2.58
G1 F1200 X-8.733 Y2.58 E159.02888
G0 F1440 X-8.167 Y2.58
G1 F1200 X-13.328 Y-2.58 E159.51435
G0 F1440 X-12.762 Y-2.58
G1 F1200 X-7.602 Y2.58 E159.99977
G0 F1440 X-7.036 Y2.58
G1 F1200 X-12.196 Y-2.58 E160.48519
G0 F1440 X-11.631 Y-2.58
G1 F1200 X-6.47 Y2.58 E160.97066
G0 F1440 X-5.905 Y2.58
G1 F1200 X-11.065 Y-2.58 E161.45608
G0 F1440 X-10.499 Y-2.58
G1 F1200 X-5.339 Y2.58 E161.9415
G0 F1440 X-4.773 Y2.58
G1 F1200 X-9.934 Y-2.58 E162.42697
G0 F1440 X-9.368 Y-2.58
G1 F1200 X-4.207 Y2.58 E162.91244
G0 F1440 X-3.642 Y2.58
G1 F1200 X-8.802 Y-2.58 E163.39786
G0 F1440 X-8.237 Y-2.58
G1 F1200 X-3.076 Y2.58 E163.88333
G0 F1440 X-2.51 Y2.58
G1 F1200 X-7.671 Y-2.58 E164.3688
G0 F1440 X-7.105 Y-2.58
G1 F1200 X-1.945 Y2.58 E164.85422
G0 F1440 X-1.379 Y2.58
G1 F1200 X-6.54 Y-2.58 E165.33969
G0 F1440 X-5.974 Y-2.58
G1 F1200 X-.813 Y2.58 E165.82515
G0 F1440 X-.248 Y2.58
G1 F1200 X-5.408 Y-2.58 E166.31058
G0 F1440 X-4.842 Y-2.58
G1 F1200 X0.317 Y2.58 E166.79595
G0 F1440 X0.883 Y2.58
G1 F1200 X-4.277 Y-2.58 E167.28137
G0 F1440 X-3.711 Y-2.58
G1 F1200 X1.448 Y2.58 E167.76674
G0 F1440 X2.014 Y2.58
G1 F1200 X-3.145 Y-2.58 E168.25212
G0 F1440 X-2.58 Y-2.58
G1 F1200 X2.58 Y2.58 E168.73754
G0 F1440 X3.145 Y2.58
G1 F1200 X-2.014 Y-2.58 E169.22291
G0 F1440 X-1.448 Y-2.58
G1 F1200 X3.711 Y2.58 E169.70829
G0 F1440 X4.277 Y2.58
G1 F1200 X-.883 Y-2.58 E170.19371
G0 F1440 X-.317 Y-2.58
G1 F1200 X4.842 Y2.58 E170.67908
G0 F1440 X5.408 Y2.58
G1 F1200 X0.248 Y-2.58 E171.1645
G0 F1440 X0.813 Y-2.58
G1 F1200 X5.974 Y2.58 E171.64997
G0 F1440 X6.54 Y2.58
G1 F1200 X1.379 Y-2.58 E172.13544
G0 F1440 X1.945 Y-2.58
G1 F1200 X7.105 Y2.58 E172.62086
G0 F1440 X7.671 Y2.58
G1 F1200 X2.51 Y-2.58 E173.10633
G0 F1440 X3.076 Y-2.58
G1 F1200 X8.237 Y2.58 E173.5918
G0 F1440 X8.802 Y2.58
G1 F1200 X3.642 Y-2.58 E174.07722
G0 F1440 X4.207 Y-2.58
G1 F1200 X9.368 Y2.58 E174.56269
G0 F1440 X9.934 Y2.58
G1 F1200 X4.773 Y-2.58 E175.04816
G0 F1440 X5.339 Y-2.58
G1 F1200 X10.499 Y2.58 E175.53358
G0 F1440 X11.065 Y2.58
G1 F1200 X5.905 Y-2.58 E176.019
G0 F1440 X6.47 Y-2.58
G1 F1200 X11.631 Y2.58 E176.50447
G0 F1440 X12.196 Y2.58
G1 F1200 X7.036 Y-2.58 E176.98989
G0 F1440 X7.602 Y-2.58
G1 F1200 X12.762 Y2.58 E177.47531
G0 F1440 X13.328 Y2.58
G1 F1200 X8.167 Y-2.58 E177.96078
G0 F1440 X8.733 Y-2.58
G1 F1200 X13.893 Y2.58 E178.4462
G0 F1440 X14.459 Y2.58
G1 F1200 X9.299 Y-2.58 E178.93162
G0 F1440 X9.864 Y-2.58
G1 F1200 X15.025 Y2.58 E179.41709
G0 F1440 X15.59 Y2.58
G1 F1200 X10.43 Y-2.58 E179.90251
G0 F1440 X10.996 Y-2.58
G1 F1200 X16.156 Y2.58 E180.38793
G0 F1440 X16.722 Y2.58
G1 F1200 X11.561 Y-2.58 E180.8734
G0 F1440 X12.127 Y-2.58
G1 F1200 X17.288 Y2.58 E181.35887
G0 F1440 X17.853 Y2.58
G1 F1200 X12.693 Y-2.58 E181.84429
G0 F1440 X13.258 Y-2.58
G1 F1200 X18.419 Y2.58 E182.32976
G0 F1440 X18.985 Y2.58
G1 F1200 X13.824 Y-2.58 E182.81522
G0 F1440 X14.39 Y-2.58
G1 F1200 X19.55 Y2.58 E183.30065
G0 F1440 X20.116 Y2.58
G1 F1200 X14.956 Y-2.58 E183.78607
G0 F1440 X15.521 Y-2.58
G1 F1200 X20.682 Y2.58 E184.27153
G0 F1440 X21.247 Y2.58
G1 F1200 X16.087 Y-2.58 E184.75696
G0 F1440 X16.653 Y-2.58
G1 F1200 X21.813 Y2.58 E185.24238
G0 F1440 X22.379 Y2.58
G1 F1200 X17.218 Y-2.58 E185.72784
G0 F1440 X17.784 Y-2.58
G1 F1200 X22.944 Y2.58 E186.21327
G0 F1440 X23.51 Y2.58
G1 F1200 X18.35 Y-2.58 E186.69869
G0 F1440 X18.915 Y-2.58
G1 F1200 X24.076 Y2.58 E187.18416
G0 F1440 X24.641 Y2.58
G1 F1200 X19.481 Y-2.58 E187.66958
G0 F1440 X20.047 Y-2.58
G1 F1200 X25.207 Y2.58 E188.155
G0 F1440 X25.773 Y2.58
G1 F1200 X20.612 Y-2.58 E188.64047
G0 F1440 X21.178 Y-2.58
G1 F1200 X26.339 Y2.58 E189.12593
G0 F1440 X26.904 Y2.58
G1 F1200 X21.744 Y-2.58 E189.61136
G0 F1440 X22.309 Y-2.58
G1 F1200 X27.47 Y2.58 E190.09682
G0 F1440 X28.036 Y2.58
G1 F1200 X22.875 Y-2.58 E190.58229
G0 F1440 X23.441 Y-2.58
G1 F1200 X28.601 Y2.58 E191.06771
G0 F1440 X29.167 Y2.58
G1 F1200 X24.006 Y-2.58 E191.55318
G0 F1440 X24.572 Y-2.58
G1 F1200 X29.733 Y2.58 E192.03865
G0 F1440 X30.298 Y2.58
G1 F1200 X25.138 Y-2.58 E192.52407
G0 F1440 X25.704 Y-2.58
G1 F1200 X30.864 Y2.58 E193.00949
G0 F1440 X31.43 Y2.58
G1 F1200 X26.269 Y-2.58 E193.49496
G0 F1440 X26.835 Y-2.58
G1 F1200 X31.995 Y2.58 E193.98038
G0 F1440 X32.561 Y2.58
G1 F1200 X27.401 Y-2.58 E194.4658
G0 F1440 X27.966 Y-2.58
G1 F1200 X33.127 Y2.58 E194.95127
G0 F1440 X33.692 Y2.58
G1 F1200 X28.532 Y-2.58 E195.43669
G0 F1440 X29.098 Y-2.58
G1 F1200 X34.258 Y2.58 E195.92211
G0 F1440 X34.824 Y2.58
G1 F1200 X29.663 Y-2.58 E196.40758
G0 F1440 X30.229 Y-2.58
G1 F1200 X35.389 Y2.58 E196.893
G0 F1440 X35.955 Y2.58
G1 F1200 X30.795 Y-2.58 E197.37842
G0 F1440 X31.36 Y-2.58
G1 F1200 X36.521 Y2.58 E197.86389
G0 F1440 X37.087 Y2.58
G1 F1200 X31.926 Y-2.58 E198.34936
G0 F1440 X32.492 Y-2.58
G1 F1200 X37.652 Y2.58 E198.83478
G0 F1440 X38.218 Y2.58
G1 F1200 X33.057 Y-2.58 E199.32025
G0 F1440 X33.623 Y-2.58
G1 F1200 X38.784 Y2.58 E199.80572
G0 F1440 X39.349 Y2.58
G1 F1200 X34.189 Y-2.58 E200.29114
G0 F1440 X34.755 Y-2.58
G1 F1200 X39.915 Y2.58 E200.77656
G0 F1440 X40.481 Y2.58
G1 F1200 X35.32 Y-2.58 E201.26203
G0 F1440 X35.886 Y-2.58
G1 F1200 X41.046 Y2.58 E201.74745
G0 F1440 X41.612 Y2.58
G1 F1200 X36.452 Y-2.58 E202.23287
G0 F1440 X37.017 Y-2.58
G1 F1200 X42.178 Y2.58 E202.71834
G0 F1440 X42.743 Y2.58
G1 F1200 X37.583 Y-2.58 E203.20376
G0 F1440 X38.149 Y-2.58
G1 F1200 X43.309 Y2.58 E203.68918
G0 F1440 X43.875 Y2.58
G1 F1200 X38.714 Y-2.58 E204.17465
G0 F1440 X39.28 Y-2.58
G1 F1200 X44.44 Y2.58 E204.66007
